svg/stop_circle_outline.svg

<?xml version="1.0" encoding="UTF-8"?><!DOCTYPE svg PUBLIC "-//W3C//DTD SVG 1.1//EN" "http://www.w3.org/Graphics/SVG/1.1/DTD/svg11.dtd"><svg xmlns="http://www.w3.org/2000/svg" xmlns:xlink="http://www.w3.org/1999/xlink" version="1.1" id="mdi-stop-circle-outline" width="24" height="24" viewBox="0 0 24 24"><path d="M12,2A10,10 0 0,0 2,12A10,10 0 0,0 12,22A10,10 0 0,0 22,12A10,10 0 0,0 12,2M12,4C16.41,4 20,7.59 20,12C20,16.41 16.41,20 12,20C7.59,20 4,16.41 4,12C4,7.59 7.59,4 12,4M9,9V15H15V9" /></svg>

<svg xmlns="http://www.w3.org/2000/svg" viewBox="0 0 24 24"><path d="M12 2A10 10 0 0 0 2 12a10 10 0 0 0 10 10 10 10 0 0 0 10-10A10 10 0 0 0 12 2m0 2c4.41 0 8 3.59 8 8s-3.59 8-8 8-8-3.59-8-8 3.59-8 8-8M9 9v6h6V9"/></svg>
